X: 738
T: Aille's Antics
R: reel
M: 4/4
K: Gmajor
G2 B/c/d cA F(G|G)B de cB A2|G2 B/c/d c B2 d|1 BA cB GDEG:|2 BA cB GBde||
e2 eg dB/A/ G(B|B)d dB AG B/c/d|ee eg dB/A/ G(g|g)f gb aa gf|
e2 eg dB/A/ G(B|B)d dB AG E2|DE G(E E)D EG|BG AB ed BA||

